src/assets/emoji/noto-emoji/1F3C5.svg

<svg enable-background="new 0 0 128 128" viewBox="0 0 128 128" xmlns="http://www.w3.org/2000/svg" xmlns:xlink="http://www.w3.org/1999/xlink"><path d="m178.08 46.04v-16.03c0-1.66 1.34-3 3-3s3 1.34 3 3v16.03c0 1.66-1.34 3-3 3-1.65 0-3-1.34-3-3z" fill="#FFCA28"/><path d="m222.28 46.04v-16.13c0-1.66 1.34-3 3-3s3 1.34 3 3v16.13c0 1.66-1.34 3-3 3s-3-1.34-3-3z" fill="#FFCA28"/><circle cx="203" cy="80.25" r="43.36" fill="#FFCA28"/><circle cx="203" cy="79.6" r="32.75" fill="#FFB300"/><path d="m205.25 50.98 6.95 14.07c0.36 0.73 1.06 1.24 1.86 1.35l15.53 2.26c2.03 0.29 2.84 2.79 1.37 4.22l-11.24 10.95c-0.58 0.57-0.85 1.39-0.71 2.19l2.65 15.47c0.35 2.02-1.78 3.56-3.59 2.61l-13.89-7.3c-0.72-0.38-1.58-0.38-2.3 0l-13.89 7.3c-1.82 0.95-3.94-0.59-3.59-2.61l2.65-15.47c0.14-0.8-0.13-1.62-0.71-2.19l-11.24-10.94c-1.47-1.43-0.66-3.93 1.37-4.22l15.53-2.26c0.81-0.12 1.5-0.62 1.86-1.35l6.95-14.07c0.91-1.85 3.54-1.85 4.44-0.01z" fill="#FDD835"/><defs><rect id="h" x="142.93" y="4.15" width="120.55" height="29.63"/></defs><clipPath id="b"><use xlink:href="#h"/></clipPath><g clip-path="url(#b)"><polygon points="187.44 34.18 218.87 34.18 262.87 -14.25 231.44 -14.25" fill="#1E88E5"/><polygon points="187.44 34.18 202.5 34.18 246.5 -14.25 231.44 -14.25" fill="#D32F2F"/><polygon points="197.61 34.18 209.03 34.18 253.03 -14.25 241.61 -14.25" fill="#BBDEFB"/></g><g clip-path="url(#b)" opacity=".2"><path d="m256.02-11-38.48 42h-28.78l-38.5-42h23.27l27.4 30.15c0.57 0.63 1.38 0.98 2.22 0.98s1.65-0.36 2.22-0.98l27.4-30.15h23.23m6.87-3zm0 0h-31.42l-28.29 31.14-28.29-31.14h-31.42l44 48h31.42l44-48z" fill="#424242"/></g><path d="m224.73 32.57h-43.49c-1.66 0-3-1.34-3-3s1.34-3 3-3h43.49c1.66 0 3 1.34 3 3 0 1.65-1.34 3-3 3z" clip-path="url(#b)" fill="#FFCA28"/><polygon points="218.87 34.18 187.44 34.18 143.44 -14.25 174.87 -14.25" clip-path="url(#b)" fill="#42A5F5"/><polygon points="209.87 34.18 196.44 34.18 152.44 -14.25 165.87 -14.25" clip-path="url(#b)" fill="#E3F2FD"/><polygon points="218.87 34.18 207.44 34.18 163.44 -14.25 174.87 -14.25" clip-path="url(#b)" fill="#EF5350"/><g clip-path="url(#b)" opacity=".2"><path d="m173.77-11 38.27 42h-23.28l-38.5-42h23.74m0.87-3h-31.42l44 48h31.42l-44-48z" fill="#424242"/></g><g opacity=".2"><path d="m203 39.89c22.25 0 40.36 18.1 40.36 40.36 0 22.25-18.1 40.36-40.36 40.36s-40.36-18.1-40.36-40.36 18.11-40.36 40.36-40.36m0-3c-23.95 0-43.36 19.41-43.36 43.36s19.41 43.36 43.36 43.36 43.36-19.41 43.36-43.36-19.41-43.36-43.36-43.36z" fill="#424242"/></g><defs><rect id="g" x="3.93" y="4.01" width="120.55" height="58.36"/></defs><clipPath id="a"><use xlink:href="#g"/></clipPath><linearGradient id="f" x1="4.81" x2="36.143" y1="-.9254" y2="49.075" gradientTransform="matrix(-1 0 0 1 98.309 0)" gradientUnits="userSpaceOnUse"><stop stop-color="#1E88E5" offset=".1848"/><stop stop-color="#1565C0" offset=".806"/></linearGradient><polygon points="48.44 46.18 79.87 46.18 109.87 -2.25 78.44 -2.25" clip-path="url(#a)" fill="url(#f)"/><linearGradient id="e" x1="7.0549" x2="33.93" y1="5.8901" y2="47.89" gradientTransform="matrix(-1 0 0 1 98.309 0)" gradientUnits="userSpaceOnUse"><stop stop-color="#eee" offset=".461"/><stop stop-color="#BDBDBD" offset="1"/></linearGradient><polygon points="59.26 46.17 72.69 46.17 102.69 -2.26 89.26 -2.26" clip-path="url(#a)" fill="url(#e)"/><linearGradient id="d" x1="-1.9249" x2="23.075" y1="4.0575" y2="44.808" gradientTransform="matrix(-1 0 0 1 98.309 0)" gradientUnits="userSpaceOnUse"><stop stop-color="#E53935" offset=".2565"/><stop stop-color="#C62828" offset=".8859"/></linearGradient><polygon points="68.64 46.17 79.87 46.17 109.87 -2.26 98.69 -2.26" clip-path="url(#a)" fill="url(#d)"/><g clip-path="url(#a)" opacity=".2"><path d="m104.48 0.75-26.28 42.43h-24.37l26.28-42.43h24.37m5.39-3zm0 0h-31.43l-30 48.43h31.42l30.01-48.43z" fill="#424242"/></g><path d="m82 34h-36c-4.42 0-8 3.58-8 8v16.04c0 2.17 1.8 3.95 4.02 3.96h0.01c2.23-0.01 4.97-1.75 4.97-3.96v-10.04c0-1.1 0.9-2 2-2h30c1.1 0 2 0.9 2 2v9.93c0 1.98 2.35 3.68 4.22 4.04 0.26 0.05 0.52 0.08 0.78 0.08 2.21 0 4-1.79 4-4v-16.05c0-4.42-3.58-8-8-8z" clip-path="url(#a)" fill="#FDD835"/><g clip-path="url(#a)" opacity=".2"><path d="m82 36c3.31 0 6 2.69 6 6v16.04c0 1.1-0.9 2-2 2-0.13 0-0.27-0.01-0.41-0.04-1.18-0.23-2.59-1.35-2.59-2.07v-9.93c0-2.21-1.79-4-4-4h-30c-2.21 0-4 1.79-4 4v10.04c0 0.88-1.64 1.96-2.97 1.96-1.12-0.01-2.03-0.89-2.03-1.96v-16.04c0-3.31 2.69-6 6-6h36m0-2h-36c-4.42 0-8 3.58-8 8v16.04c0 2.17 1.8 3.95 4.02 3.96h0.01c2.23-0.01 4.97-1.75 4.97-3.96v-10.04c0-1.1 0.9-2 2-2h30c1.1 0 2 0.9 2 2v9.93c0 1.98 2.35 3.68 4.22 4.04 0.26 0.05 0.52 0.08 0.78 0.08 2.21 0 4-1.79 4-4v-16.05c0-4.42-3.58-8-8-8z" fill="#424242"/></g><linearGradient id="c" x1="34.81" x2="66.143" y1="-.9254" y2="49.075" gradientUnits="userSpaceOnUse"><stop stop-color="#64B5F6" offset=".1355"/><stop stop-color="#2196F3" offset=".9462"/></linearGradient><polygon points="79.87 46.18 48.44 46.18 18.44 -2.25 49.87 -2.25" clip-path="url(#a)" fill="url(#c)"/><linearGradient id="l" x1="38.231" x2="65.106" y1="1.4774" y2="43.477" gradientUnits="userSpaceOnUse"><stop stop-color="#FAFAFA" offset=".2104"/><stop stop-color="#E0E0E0" offset=".7737"/></linearGradient><polygon points="73.04 46.17 59.62 46.17 29.62 -2.26 43.04 -2.26" clip-path="url(#a)" fill="url(#l)"/><linearGradient id="k" x1="48.254" x2="73.254" y1="4.0575" y2="44.808" gradientUnits="userSpaceOnUse"><stop stop-color="#EF5350" offset=".2579"/><stop stop-color="#E53935" offset=".89"/></linearGradient><polygon points="79.84 46.17 68.62 46.17 38.62 -2.26 49.8 -2.26" clip-path="url(#a)" fill="url(#k)"/><g clip-path="url(#a)" opacity=".2"><path d="m48.2 0.75 26.28 42.43h-24.37l-26.28-42.43h24.37m1.67-3h-31.43l30 48.43h31.42l-29.99-48.43z" fill="#424242"/></g><radialGradient id="j" cx="43" cy="57.5" r="72.577" gradientUnits="userSpaceOnUse"><stop stop-color="#FFEB3B" offset=".2972"/><stop stop-color="#FBC02D" offset=".9544"/></radialGradient><circle cx="64" cy="86" r="38" fill="url(#j)"/><g opacity=".2"><path d="m64 51c19.3 0 35 15.7 35 35s-15.7 35-35 35-35-15.7-35-35 15.7-35 35-35m0-3c-20.99 0-38 17.01-38 38s17.01 38 38 38 38-17.01 38-38-17.01-38-38-38z" fill="#424242"/></g><g fill="url(#i)"><radialGradient id="i" cx="50.02" cy="61.305" r="54.464" gradientUnits="userSpaceOnUse"><stop stop-color="#FDD835" offset=".0977"/><stop stop-color="#F9A825" offset=".9508"/></radialGradient><path d="m66.2 57.21 6.87 13.92c0.36 0.72 1.05 1.22 1.84 1.34l15.36 2.23c0.22 0.03 0.42 0.1 0.61 0.18-4.04-10.12-13.63-17.43-25.01-18.15 0.12 0.15 0.23 0.3 0.33 0.48z"/><path d="m37.73 74.7 15.36-2.23c0.8-0.12 1.49-0.62 1.84-1.34l6.87-13.92c0.09-0.18 0.21-0.33 0.33-0.48-11.38 0.72-20.97 8.03-25.01 18.15 0.19-0.08 0.39-0.15 0.61-0.18z"/><path d="m45.57 107.18 2.62-15.3c0.14-0.79-0.13-1.6-0.7-2.17l-11.12-10.83c-0.16-0.16-0.29-0.34-0.4-0.52-0.6 2.32-0.91 4.74-0.91 7.24 0 8.97 4.08 16.99 10.49 22.29-0.03-0.22-0.02-0.46 0.02-0.71z"/><path d="m92.02 78.36c-0.11 0.18-0.23 0.36-0.4 0.52l-11.11 10.83c-0.58 0.56-0.84 1.37-0.7 2.17l2.62 15.3c0.04 0.25 0.05 0.49 0.02 0.72 6.41-5.31 10.49-13.32 10.49-22.29 0-2.51-0.32-4.94-0.92-7.25z"/><path d="m78.88 109.76-13.74-7.22c-0.71-0.37-1.57-0.37-2.28 0l-13.74 7.22c-0.22 0.12-0.45 0.2-0.68 0.24 4.49 2.87 9.83 4.54 15.56 4.54s11.06-1.67 15.56-4.54c-0.23-0.05-0.46-0.12-0.68-0.24z"/></g><g opacity=".2"><path d="m71.27 60.71c5.73 1.69 10.75 5.33 14.13 10.25l-9.78-1.42-4.35-8.83m-5.4-3.98c0.12 0.15 0.24 0.3 0.33 0.48l6.87 13.92c0.36 0.72 1.05 1.22 1.84 1.34l15.36 2.23c0.22 0.03 0.42 0.1 0.61 0.18-4.04-10.12-13.63-17.43-25.01-18.15z" fill="#424242"/></g><g opacity=".2"><path d="m56.73 60.71-4.36 8.83-9.78 1.42c3.39-4.92 8.41-8.56 14.14-10.25m5.4-3.71zm0-0.27c-11.38 0.72-20.97 8.03-25.01 18.15 0.19-0.08 0.39-0.15 0.61-0.18l15.36-2.23c0.8-0.12 1.49-0.62 1.84-1.34l6.87-13.92c0.1-0.18 0.21-0.33 0.33-0.48z" fill="#424242"/></g><g opacity=".2"><path d="m38.08 84.72 7.11 6.93-1.69 9.84c-3.5-4.51-5.44-10.07-5.44-15.9 0-0.28 0.01-0.57 0.02-0.87m-2.1-6.36c-0.6 2.32-0.91 4.74-0.91 7.24 0 8.97 4.08 16.99 10.49 22.29-0.03-0.23-0.02-0.47 0.02-0.72l2.62-15.3c0.14-0.79-0.13-1.6-0.7-2.17l-11.13-10.82c-0.16-0.16-0.29-0.34-0.39-0.52z" fill="#424242"/></g><g opacity=".2"><path d="m89.92 84.72c0.01 0.29 0.01 0.58 0.01 0.88 0 5.83-1.94 11.39-5.44 15.9l-1.69-9.84 7.12-6.94m2.1-6.36c-0.11 0.18-0.23 0.36-0.4 0.52l-11.11 10.83c-0.58 0.56-0.84 1.37-0.7 2.17l2.62 15.3c0.04 0.25 0.05 0.49 0.02 0.72 6.41-5.31 10.49-13.32 10.49-22.29 0-2.51-0.32-4.94-0.92-7.25z" fill="#424242"/></g><g opacity=".2"><path d="m64 105.33 8.86 4.66c-2.82 1.03-5.82 1.56-8.86 1.56s-6.04-0.53-8.86-1.56l8.86-4.66m0-3.08c-0.39 0-0.78 0.09-1.14 0.28l-13.74 7.22c-0.22 0.12-0.45 0.2-0.68 0.24 4.49 2.87 9.83 4.54 15.56 4.54s11.06-1.67 15.56-4.54c-0.23-0.04-0.45-0.12-0.68-0.24l-13.74-7.22c-0.36-0.18-0.75-0.28-1.14-0.28z" fill="#424242"/></g></svg>

<?xml version="1.0" encoding="utf-8"?>
<!-- Generator: Adobe Illustrator 24.0.3, SVG Export Plug-In . SVG Version: 6.00 Build 0)  -->
<svg version="1.1" id="Layer_1" xmlns="http://www.w3.org/2000/svg" xmlns:xlink="http://www.w3.org/1999/xlink" x="0px" y="0px"
	 viewBox="0 0 128 128" style="enable-background:new 0 0 128 128;" xml:space="preserve">
<g>
	<g>
		<defs>
			<rect id="SVGID_1_" x="3.9" y="4" width="120.6" height="58.4"/>
		</defs>
		<clipPath id="SVGID_2_">
			<use xlink:href="#SVGID_1_"  style="overflow:visible;"/>
		</clipPath>
		
			<linearGradient id="SVGID_3_" gradientUnits="userSpaceOnUse" x1="-461.2024" y1="712.9722" x2="-429.8694" y2="762.9726" gradientTransform="matrix(-1 0 0 1 -367.691 -713.8898)">
			<stop  offset="0.1848" style="stop-color:#1E88E5"/>
			<stop  offset="0.806" style="stop-color:#1565C0"/>
		</linearGradient>
		<polygon style="clip-path:url(#SVGID_2_);fill:url(#SVGID_3_);" points="48.4,46.2 79.9,46.2 109.9,-2.2 78.4,-2.2 		"/>
	</g>
</g>
<g>
	<g>
		<defs>
			<rect id="SVGID_4_" x="3.9" y="4" width="120.6" height="58.4"/>
		</defs>
		<clipPath id="SVGID_5_">
			<use xlink:href="#SVGID_4_"  style="overflow:visible;"/>
		</clipPath>
		
			<linearGradient id="SVGID_6_" gradientUnits="userSpaceOnUse" x1="-458.961" y1="719.79" x2="-432.0859" y2="761.79" gradientTransform="matrix(-1 0 0 1 -367.691 -713.8898)">
			<stop  offset="0.461" style="stop-color:#EEEEEE"/>
			<stop  offset="1" style="stop-color:#BDBDBD"/>
		</linearGradient>
		<polygon style="clip-path:url(#SVGID_5_);fill:url(#SVGID_6_);" points="59.3,46.2 72.7,46.2 102.7,-2.3 89.3,-2.3 		"/>
	</g>
</g>
<g>
	<g>
		<defs>
			<rect id="SVGID_7_" x="3.9" y="4" width="120.6" height="58.4"/>
		</defs>
		<clipPath id="SVGID_8_">
			<use xlink:href="#SVGID_7_"  style="overflow:visible;"/>
		</clipPath>
		
			<linearGradient id="SVGID_9_" gradientUnits="userSpaceOnUse" x1="-467.9198" y1="717.9441" x2="-442.9199" y2="758.6946" gradientTransform="matrix(-1 0 0 1 -367.691 -713.8898)">
			<stop  offset="0.2565" style="stop-color:#E53935"/>
			<stop  offset="0.8859" style="stop-color:#C62828"/>
		</linearGradient>
		<polygon style="clip-path:url(#SVGID_8_);fill:url(#SVGID_9_);" points="68.6,46.2 79.9,46.2 109.9,-2.3 98.7,-2.3 		"/>
	</g>
</g>
<g>
	<g>
		<defs>
			<rect id="SVGID_10_" x="3.9" y="4" width="120.6" height="58.4"/>
		</defs>
		<clipPath id="SVGID_11_">
			<use xlink:href="#SVGID_10_"  style="overflow:visible;"/>
		</clipPath>
		<g style="opacity:0.2;clip-path:url(#SVGID_11_);">
			<path style="fill:#424242;" d="M104.5,0.8L78.2,43.2H53.8L80.1,0.8H104.5z M109.9-2.2H78.4l-30,48.4h31.4L109.9-2.2z"/>
		</g>
	</g>
</g>
<g>
	<g>
		<defs>
			<rect id="SVGID_12_" x="3.9" y="4" width="120.6" height="58.4"/>
		</defs>
		<clipPath id="SVGID_13_">
			<use xlink:href="#SVGID_12_"  style="overflow:visible;"/>
		</clipPath>
		<path style="clip-path:url(#SVGID_13_);fill:#FDD835;" d="M82,34H46c-4.4,0-8,3.6-8,8v16c0,2.2,1.8,4,4,4l0,0c2.2,0,5-1.8,5-4V48
			c0-1.1,0.9-2,2-2h30c1.1,0,2,0.9,2,2v9.9c0,2,2.3,3.7,4.2,4c0.3,0,0.5,0.1,0.8,0.1c2.2,0,4-1.8,4-4V42C90,37.6,86.4,34,82,34z"/>
	</g>
</g>
<g>
	<g>
		<defs>
			<rect id="SVGID_14_" x="3.9" y="4" width="120.6" height="58.4"/>
		</defs>
		<clipPath id="SVGID_15_">
			<use xlink:href="#SVGID_14_"  style="overflow:visible;"/>
		</clipPath>
		<g style="opacity:0.2;clip-path:url(#SVGID_15_);">
			<path style="fill:#424242;" d="M82,36c3.3,0,6,2.7,6,6v16c0,1.1-0.9,2-2,2c-0.1,0-0.3,0-0.4,0c-1.2-0.2-2.6-1.3-2.6-2.1V48
				c0-2.2-1.8-4-4-4H49c-2.2,0-4,1.8-4,4v10c0,0.9-1.6,2-3,2c-1.1,0-2-0.9-2-2V42c0-3.3,2.7-6,6-6H82 M82,34H46c-4.4,0-8,3.6-8,8v16
				c0,2.2,1.8,4,4,4l0,0c2.2,0,5-1.8,5-4V48c0-1.1,0.9-2,2-2h30c1.1,0,2,0.9,2,2v9.9c0,2,2.3,3.7,4.2,4c0.3,0,0.5,0.1,0.8,0.1
				c2.2,0,4-1.8,4-4V42C90,37.6,86.4,34,82,34z"/>
		</g>
	</g>
</g>
<g>
	<g>
		<defs>
			<rect id="SVGID_16_" x="3.9" y="4" width="120.6" height="58.4"/>
		</defs>
		<clipPath id="SVGID_17_">
			<use xlink:href="#SVGID_16_"  style="overflow:visible;"/>
		</clipPath>
		
			<linearGradient id="SVGID_18_" gradientUnits="userSpaceOnUse" x1="34.7911" y1="712.9761" x2="66.1241" y2="762.9766" gradientTransform="matrix(1 0 0 1 0 -713.8898)">
			<stop  offset="0.1355" style="stop-color:#64B5F6"/>
			<stop  offset="0.9462" style="stop-color:#2196F3"/>
		</linearGradient>
		<polygon style="clip-path:url(#SVGID_17_);fill:url(#SVGID_18_);" points="79.9,46.2 48.4,46.2 18.4,-2.2 49.9,-2.2 		"/>
	</g>
</g>
<g>
	<g>
		<defs>
			<rect id="SVGID_19_" x="3.9" y="4" width="120.6" height="58.4"/>
		</defs>
		<clipPath id="SVGID_20_">
			<use xlink:href="#SVGID_19_"  style="overflow:visible;"/>
		</clipPath>
		
			<linearGradient id="SVGID_21_" gradientUnits="userSpaceOnUse" x1="38.2089" y1="715.3813" x2="65.0839" y2="757.3809" gradientTransform="matrix(1 0 0 1 0 -713.8898)">
			<stop  offset="0.2104" style="stop-color:#FAFAFA"/>
			<stop  offset="0.7737" style="stop-color:#E0E0E0"/>
		</linearGradient>
		<polygon style="clip-path:url(#SVGID_20_);fill:url(#SVGID_21_);" points="73,46.2 59.6,46.2 29.6,-2.3 43,-2.3 		"/>
	</g>
</g>
<g>
	<g>
		<defs>
			<rect id="SVGID_22_" x="3.9" y="4" width="120.6" height="58.4"/>
		</defs>
		<clipPath id="SVGID_23_">
			<use xlink:href="#SVGID_22_"  style="overflow:visible;"/>
		</clipPath>
		
			<linearGradient id="SVGID_24_" gradientUnits="userSpaceOnUse" x1="48.2315" y1="717.9609" x2="73.2315" y2="758.7115" gradientTransform="matrix(1 0 0 1 0 -713.8898)">
			<stop  offset="0.2579" style="stop-color:#EF5350"/>
			<stop  offset="0.89" style="stop-color:#E53935"/>
		</linearGradient>
		<polygon style="clip-path:url(#SVGID_23_);fill:url(#SVGID_24_);" points="79.8,46.2 68.6,46.2 38.6,-2.3 49.8,-2.3 		"/>
	</g>
</g>
<g>
	<g>
		<defs>
			<rect id="SVGID_25_" x="3.9" y="4" width="120.6" height="58.4"/>
		</defs>
		<clipPath id="SVGID_26_">
			<use xlink:href="#SVGID_25_"  style="overflow:visible;"/>
		</clipPath>
		<g style="opacity:0.2;clip-path:url(#SVGID_26_);">
			<path style="fill:#424242;" d="M48.2,0.8l26.3,42.4H50.1L23.8,0.8H48.2 M49.9-2.2H18.4l30,48.4h31.4C79.9,46.2,49.9-2.2,49.9-2.2
				z"/>
		</g>
	</g>
</g>
<radialGradient id="SVGID_27_" cx="43" cy="771.3898" r="72.577" gradientTransform="matrix(1 0 0 1 0 -713.8898)" gradientUnits="userSpaceOnUse">
	<stop  offset="0.2972" style="stop-color:#FFEB3B"/>
	<stop  offset="0.9544" style="stop-color:#FBC02D"/>
</radialGradient>
<circle style="fill:url(#SVGID_27_);" cx="64" cy="86" r="38"/>
<g style="opacity:0.2;">
	<path style="fill:#424242;" d="M64,51c19.3,0,35,15.7,35,35s-15.7,35-35,35s-35-15.7-35-35S44.7,51,64,51 M64,48c-21,0-38,17-38,38
		s17,38,38,38s38-17,38-38S85,48,64,48z"/>
</g>
<g>
	
		<radialGradient id="SVGID_28_" cx="50.02" cy="775.1948" r="54.464" gradientTransform="matrix(1 0 0 1 0 -713.8898)" gradientUnits="userSpaceOnUse">
		<stop  offset="0.0977" style="stop-color:#FDD835"/>
		<stop  offset="0.9508" style="stop-color:#F9A825"/>
	</radialGradient>
	<path style="fill:url(#SVGID_28_);" d="M66.2,57.2l6.9,13.9c0.4,0.7,1.1,1.2,1.8,1.3l15.4,2.2c0.2,0,0.4,0.1,0.6,0.2
		c-4-10.1-13.6-17.4-25-18.2C66,56.9,66.1,57,66.2,57.2z"/>
	
		<radialGradient id="SVGID_29_" cx="50.02" cy="775.1948" r="54.464" gradientTransform="matrix(1 0 0 1 0 -713.8898)" gradientUnits="userSpaceOnUse">
		<stop  offset="0.0977" style="stop-color:#FDD835"/>
		<stop  offset="0.9508" style="stop-color:#F9A825"/>
	</radialGradient>
	<path style="fill:url(#SVGID_29_);" d="M37.7,74.7l15.4-2.2c0.8-0.1,1.5-0.6,1.8-1.3l6.9-13.9c0.1-0.2,0.2-0.3,0.3-0.5
		c-11.4,0.7-21,8-25,18.1C37.3,74.8,37.5,74.7,37.7,74.7z"/>
	
		<radialGradient id="SVGID_30_" cx="50.02" cy="775.1948" r="54.464" gradientTransform="matrix(1 0 0 1 0 -713.8898)" gradientUnits="userSpaceOnUse">
		<stop  offset="0.0977" style="stop-color:#FDD835"/>
		<stop  offset="0.9508" style="stop-color:#F9A825"/>
	</radialGradient>
	<path style="fill:url(#SVGID_30_);" d="M45.6,107.2l2.6-15.3c0.1-0.8-0.1-1.6-0.7-2.2L36.4,78.9c-0.2-0.2-0.3-0.3-0.4-0.5
		c-0.6,2.3-0.9,4.7-0.9,7.2c0,9,4.1,17,10.5,22.3C45.5,107.7,45.5,107.4,45.6,107.2z"/>
	
		<radialGradient id="SVGID_31_" cx="50.02" cy="775.1948" r="54.464" gradientTransform="matrix(1 0 0 1 0 -713.8898)" gradientUnits="userSpaceOnUse">
		<stop  offset="0.0977" style="stop-color:#FDD835"/>
		<stop  offset="0.9508" style="stop-color:#F9A825"/>
	</radialGradient>
	<path style="fill:url(#SVGID_31_);" d="M92,78.4c-0.1,0.2-0.2,0.4-0.4,0.5L80.5,89.7c-0.6,0.6-0.8,1.4-0.7,2.2l2.6,15.3
		c0,0.2,0.1,0.5,0,0.7c6.4-5.3,10.5-13.3,10.5-22.3C92.9,83.1,92.6,80.7,92,78.4z"/>
	
		<radialGradient id="SVGID_32_" cx="50.02" cy="775.1948" r="54.464" gradientTransform="matrix(1 0 0 1 0 -713.8898)" gradientUnits="userSpaceOnUse">
		<stop  offset="0.0977" style="stop-color:#FDD835"/>
		<stop  offset="0.9508" style="stop-color:#F9A825"/>
	</radialGradient>
	<path style="fill:url(#SVGID_32_);" d="M78.9,109.8l-13.7-7.2c-0.7-0.4-1.6-0.4-2.3,0l-13.7,7.2c-0.2,0.1-0.5,0.2-0.7,0.2
		c4.5,2.9,9.8,4.5,15.6,4.5s11.1-1.7,15.6-4.5C79.3,109.9,79.1,109.9,78.9,109.8z"/>
</g>
<g style="opacity:0.2;">
	<path style="fill:#424242;" d="M71.3,60.7C77,62.4,82,66,85.4,71l-9.8-1.4L71.3,60.7 M65.9,56.7c0.1,0.2,0.2,0.3,0.3,0.5l6.9,13.9
		c0.4,0.7,1.1,1.2,1.8,1.3l15.4,2.2c0.2,0,0.4,0.1,0.6,0.2C86.8,64.8,77.2,57.4,65.9,56.7z"/>
</g>
<g style="opacity:0.2;">
	<path style="fill:#424242;" d="M56.7,60.7l-4.4,8.8L42.6,71C46,66,51,62.4,56.7,60.7z M62.1,56.7c-11.4,0.7-21,8-25,18.1
		c0.2-0.1,0.4-0.2,0.6-0.2l15.4-2.2c0.8-0.1,1.5-0.6,1.8-1.3l6.9-13.9C61.9,57,62,56.9,62.1,56.7z"/>
</g>
<g style="opacity:0.2;">
	<path style="fill:#424242;" d="M38.1,84.7l7.1,6.9l-1.7,9.8c-3.5-4.4-5.4-10-5.4-15.8C38.1,85.3,38.1,85,38.1,84.7 M36,78.4
		c-0.6,2.3-0.9,4.7-0.9,7.2c0,9,4.1,17,10.5,22.3c0-0.2,0-0.5,0-0.7l2.6-15.3c0.1-0.8-0.1-1.6-0.7-2.2L36.4,78.9
		C36.2,78.7,36.1,78.5,36,78.4z"/>
</g>
<g style="opacity:0.2;">
	<path style="fill:#424242;" d="M89.9,84.7c0,0.3,0,0.6,0,0.9c0,5.8-1.9,11.4-5.4,15.9l-1.7-9.8L89.9,84.7 M92,78.4
		c-0.1,0.2-0.2,0.4-0.4,0.5L80.5,89.7c-0.6,0.6-0.8,1.4-0.7,2.2l2.6,15.3c0,0.2,0.1,0.5,0,0.7c6.4-5.3,10.5-13.3,10.5-22.3
		C92.9,83.1,92.6,80.7,92,78.4z"/>
</g>
<g style="opacity:0.2;">
	<path style="fill:#424242;" d="M64,105.3l8.9,4.7c-2.8,1-5.8,1.6-8.9,1.6s-6-0.5-8.9-1.6L64,105.3 M64,102.2
		c-0.4,0-0.8,0.1-1.1,0.3l-13.7,7.2c-0.2,0.1-0.5,0.2-0.7,0.2c4.5,2.9,9.8,4.5,15.6,4.5s11.1-1.7,15.6-4.5c-0.2,0-0.4-0.1-0.7-0.2
		l-13.7-7.2C64.8,102.3,64.4,102.2,64,102.2z"/>
</g>
</svg>
